Numix-GalliumOS/64/mimetypes/encrypted.svg

<?xml version="1.0" encoding="UTF-8" standalone="no"?>
<svg
   xmlns:dc="http://purl.org/dc/elements/1.1/"
   xmlns:cc="http://creativecommons.org/ns#"
   xmlns:rdf="http://www.w3.org/1999/02/22-rdf-syntax-ns#"
   xmlns:svg="http://www.w3.org/2000/svg"
   xmlns="http://www.w3.org/2000/svg"
   xmlns:sodipodi="http://sodipodi.sourceforge.net/DTD/sodipodi-0.dtd"
   xmlns:inkscape="http://www.inkscape.org/namespaces/inkscape"
   width="64"
   height="64"
   viewBox="0 0 64 64"
   id="svg2"
   version="1.1"
   inkscape:version="0.48.5 r10040"
   sodipodi:docname="encrypted.svg">
  <metadata
     id="metadata14">
    <rdf:RDF>
      <cc:Work
         rdf:about="">
        <dc:format>image/svg+xml</dc:format>
        <dc:type
           rdf:resource="http://purl.org/dc/dcmitype/StillImage" />
      </cc:Work>
    </rdf:RDF>
  </metadata>
  <defs
     id="defs12" />
  <sodipodi:namedview
     pagecolor="#ffffff"
     bordercolor="#666666"
     borderopacity="1"
     objecttolerance="10"
     gridtolerance="10"
     guidetolerance="10"
     inkscape:pageopacity="0"
     inkscape:pageshadow="2"
     inkscape:window-width="1280"
     inkscape:window-height="970"
     id="namedview10"
     showgrid="true"
     inkscape:zoom="14.75"
     inkscape:cx="41.741667"
     inkscape:cy="31.207392"
     inkscape:window-x="0"
     inkscape:window-y="0"
     inkscape:window-maximized="1"
     inkscape:current-layer="svg2">
    <inkscape:grid
       type="xygrid"
       id="grid2991"
       empspacing="5"
       visible="true"
       enabled="true"
       snapvisiblegridlinesonly="true" />
  </sodipodi:namedview>
  <path
     style="fill:#dcdcdc;fill-opacity:1"
     d="M 10.671776,5.9377778e-4 C 9.296828,6.2340741e-4 8,1.3535763 8,2.7880616 L 8,61.212536 C 8,62.565513 9.374948,64 10.671776,64 l 42.654664,0 c 1.296828,0 2.671776,-1.434487 2.671776,-2.787464 L 56,18 38,0 z"
     id="path4-1"
     inkscape:connector-curvature="0"
     sodipodi:nodetypes="ssssssccs" />
  <path
     style="fill:#000000;fill-opacity:0.19599998"
     d="M 42,18 56,32 56,18 z"
     id="path6-4"
     inkscape:connector-curvature="0"
     sodipodi:nodetypes="cccc" />
  <path
     style="fill:#ffffff;fill-opacity:0.39200003"
     d="M 38.000612,5.9377778e-4 55.9838,18 40.757276,18 c -1.345902,0 -2.756664,-1.42698 -2.756664,-2.772881 z"
     id="path8-6"
     inkscape:connector-curvature="0"
     sodipodi:nodetypes="ccssc" />
  <path
     style="color:#000000;fill:#888888;fill-opacity:1"
     inkscape:connector-curvature="0"
     id="path30"
     d="m 32.000042,22 c 0,0 9.990822,-0.63309 9.999958,6 l 0,6 c 0,0 2.000046,0.13168 2.000042,1.6363 l -4.4e-5,13.977212 C 43.999862,50.875686 42.774932,51.999863 41.428568,52 l -18.85715,0 c -1.346354,-1.37e-4 -2.571294,-1.124314 -2.57142,-2.386488 L 20.000042,35.6363 C 20.000046,34.131672 22,34 22,34 l 0,-6 c 0,-6 10.00005,-6 10.000042,-6 z m 0,4.090889 c 0,0 -6.000042,-0.231922 -6.000042,4.748736 L 26,34 l 12,0 0,-3.136404 c 0,-4.98066 -5.999958,-4.772707 -5.999958,-4.772707 z"
     sodipodi:nodetypes="cccsccccsccccsccsc" />
</svg>

<svg xmlns="http://www.w3.org/2000/svg" viewBox="0 0 64 64">
 <path d="m 10.672 0.001 c -1.375 0 -2.672 1.353 -2.672 2.787 l 0 58.42 c 0 1.353 1.375 2.787 2.672 2.787 l 42.655 0 c 1.297 0 2.672 -1.434 2.672 -2.787 l 0.002 -43.21 -18 -18 z" style="fill:#dcdcdc;fill-opacity:1"/>
 <path d="m 42 18 14 14 0 -14 z" style="fill:#000;fill-opacity:0.196"/>
 <path d="m 38 0.001 17.983 17.999 -15.227 0 c -1.346 0 -2.757 -1.427 -2.757 -2.773 z" style="fill:#fff;fill-opacity:0.392"/>
 <path d="m 32 22 c 0 0 9.991 -0.633 10 6 l 0 6 c 0 0 2 0.132 2 1.636 l 0 13.977 c 0 1.262 -1.225 2.386 -2.571 2.386 l -18.857 0 c -1.346 0 -2.571 -1.124 -2.571 -2.386 l 0 -13.977 c 0 -1.505 2 -1.636 2 -1.636 l 0 -6 c 0 -6 10 -6 10 -6 z m 0 4.091 c 0 0 -6 -0.232 -6 4.749 l 0 3.16 l 12 0 0 -3.136 c 0 -4.981 -6 -4.773 -6 -4.773 z" style="fill:#888;fill-opacity:1;color:#000"/>
</svg>
